X: 37779
T: Song For Rich
R: waltz
M: 3/4
K: Gmajor
ga|b3g af|g4 ba|g4 e|d4 GB|d3B BA|G4 GD|E<<G2 B2|A6-|A4 GA|
B3G AF|G4 gf|e4 e2|d4 BA|G4 GD|E<<G2 B2|A3G F2|G4 B,C|
D3B, D2|DB, B,D GF|E3D C2|B,A,G,B, B,D|G3G GF|E6|E6|D3G FE|D4 z2|
D6|D4 Bd|c4 cA|BA G2 GF|E6-|E6|D6|D6-|D4||

